X: 30988
T: P. J. Moloney's
R: hornpipe
M: 4/4
K: Gmajor
|:(3DEF|GBDG BDGB|dg ~g2 bgdB|c2 ec Bdgf|edcB ADFA|
(3GAB DG BDGB|dg ~g2 bgdB|c2 ec dgfe|(3ded (3cBA G2:|
|:Bd|g2 bg dgBg|~g2 bg dBGB|c2 ec Bdgf|edcB ADFA|
(3Bcd Bd ~c3 e|dg ~g2 bgdB|c2 ec dgfe|(3ded (3cBA G2:|

